images/record-manual-payments.svg

<svg height="64" viewBox="0 0 64 64" width="64" xmlns="http://www.w3.org/2000/svg"><path d="m31.996094 0c-2.226563 0-4.019532 1.742188-4.089844 3.960938l-.046875 1.570312c-.832031-.9375-2.050781-1.53125-3.40625-1.53125-2.480469 0-4.476563 1.945312-4.535156 4.429688l-.136719 5.570312h-14.78125c-1.652344 0-3 1.347656-3 3v28c0 1.652344 1.347656 3 3 3h6.300781c.707031 1.523438 1.585938 2.96875 2.652344 4.296875l4.199219 5.246094 2.398437 4.800781c.511719 1.019531 1.542969 1.65625 2.683594 1.65625h24.285156c1.328125 0 2.480469-.851562 2.871094-2.117188l2.519531-8.195312c.570313-1.855469.851563-3.761719.890625-5.6875h5.199219c1.652344 0 3-1.347656 3-3v-28c0-1.652344-1.347656-3-3-3h-7.136719c-.644531-1.753906-2.304687-3-4.273437-3-1.335938 0-2.539063.574219-3.378906 1.484375l-.113282-4.0625c-.070312-2.480469-2.070312-4.421875-4.550781-4.421875-1.351563 0-2.570313.597656-3.40625 1.539062l-.046875-1.578124c-.070312-2.21875-1.867188-3.960938-4.097656-3.960938zm.007812 2c1.136719 0 2.054688.890625 2.089844 2.023438l.308594 9.976562h-4.804688l.308594-9.976562c.035156-1.132813.953125-2.023438 2.097656-2.023438zm-7.542968 4c1.398437 0 2.539062 1.140625 2.539062 2.539062v5.460938h-5.21875l.136719-5.523438c.03125-1.363281 1.171875-2.476562 2.542969-2.476562zm15.085937 0c1.390625 0 2.511719 1.089844 2.550781 2.476562l.152344 5.523438h-5.25v-5.453125c0-1.402344 1.144531-2.546875 2.546875-2.546875zm8.046875 7c.824219 0 1.558594.394531 2.03125 1h-4.0625c.476562-.605469 1.203125-1 2.03125-1zm-42.59375 3h54c.550781 0 1 .449219 1 1v28c0 .550781-.449219 1-1 1h-29.355469c-2.109375 0-4.070312-.742188-5.632812-2 .546875-.007812.988281-.449219.988281-1v-2c0-.554688-.445312-1-1-1s-1 .445312-1 1v2c0 .019531.011719.039062.011719.058594-.703125-.769532-1.292969-1.660156-1.703125-2.667969l-2.761719-6.78125c-1.144531-2.820313-3.484375-4.917969-6.410156-5.753906-.964844-.273438-1.992188-.054688-2.761719.59375-.761719.644531-1.152344 1.625-1.046875 2.617187l1.140625 10.386719c.167969 1.558594.515625 3.082031 1.019531 4.546875h-5.488281c-.550781 0-1-.449219-1-1v-28c0-.550781.449219-1 1-1zm14 2c-.554688 0-1 .445312-1 1v2c0 .554688.445312 1 1 1s1-.445312 1-1v-2c0-.554688-.445312-1-1-1zm5 0c-.554688 0-1 .445312-1 1v2c0 .554688.445312 1 1 1s1-.445312 1-1v-2c0-.554688-.445312-1-1-1zm5 0c-.554688 0-1 .445312-1 1v2c0 .050781.023438.09375.03125.144531-2.976562 1.796875-5.03125 5.535157-5.03125 9.855469s2.054688 8.058594 5.03125 9.855469c-.007812.050781-.03125.09375-.03125.144531v2c0 .554688.445312 1 1 1s1-.445312 1-1v-1.28125c.644531.175781 1.3125.28125 2 .28125s1.355469-.105469 2-.28125v1.28125c0 .554688.445312 1 1 1s1-.445312 1-1v-2c0-.050781-.023438-.09375-.03125-.144531 2.976562-1.796875 5.03125-5.535157 5.03125-9.855469s-2.054688-8.058594-5.03125-9.855469c.007812-.050781.03125-.09375.03125-.144531v-2c0-.554688-.445312-1-1-1s-1 .445312-1 1v1.28125c-.644531-.175781-1.3125-.28125-2-.28125s-1.355469.105469-2 .28125v-1.28125c0-.554688-.445312-1-1-1zm11 0c-.554688 0-1 .445312-1 1v2c0 .554688.445312 1 1 1s1-.445312 1-1v-2c0-.554688-.445312-1-1-1zm5 0c-.554688 0-1 .445312-1 1v2c0 .554688.445312 1 1 1s1-.445312 1-1v-2c0-.554688-.445312-1-1-1zm-38 1c-.554688 0-1 .445312-1 1s.445312 1 1 1h5c.554688 0 1-.445312 1-1s-.445312-1-1-1zm45 0c-.554688 0-1 .445312-1 1s.445312 1 1 1h5c.554688 0 1-.445312 1-1s-.445312-1-1-1zm-20 3c3.859375 0 7 4.035156 7 9s-3.140625 9-7 9-7-4.035156-7-9 3.140625-9 7-9zm18 5c-2.207031 0-4 1.792969-4 4s1.792969 4 4 4 4-1.792969 4-4-1.792969-4-4-4zm0 1.667969c1.285156 0 2.332031 1.046875 2.332031 2.332031s-1.046875 2.332031-2.332031 2.332031-2.332031-1.046875-2.332031-2.332031 1.046875-2.332031 2.332031-2.332031zm-38.65625 1.070312c.078125.003907.164062.015625.246094.042969 2.328125.664062 4.191406 2.335938 5.105468 4.582031l2.757813 6.78125c1.695313 4.164063 5.695313 6.855469 10.191406 6.855469h22.164063c-.042969 1.726562-.296875 3.4375-.808594 5.097656l-2.519531 8.195313c-.132813.421875-.515625.707031-.960938.707031h-24.285156c-.378906 0-.722656-.210938-.890625-.550781l-2.449219-4.898438c-.015625-.03125-.046875-.050781-.066406-.082031s-.027344-.066406-.046875-.09375l-4.269531-5.328125c-1.035157-1.296875-1.839844-2.78125-2.75-4.671875-.671875-1.636719-1.113281-3.363281-1.308594-5.140625l-1.136719-10.386719c-.035156-.335937.09375-.652344.351563-.871094.195312-.164062.429687-.246093.675781-.238281zm28.65625 10.261719c-.554688 0-1 .445312-1 1v2c0 .554688.445312 1 1 1s1-.445312 1-1v-2c0-.554688-.445312-1-1-1zm5 0c-.554688 0-1 .445312-1 1v2c0 .554688.445312 1 1 1s1-.445312 1-1v-2c0-.554688-.445312-1-1-1zm7 1c-.554688 0-1 .445312-1 1s.445312 1 1 1h5c.554688 0 1-.445312 1-1s-.445312-1-1-1zm0 0" fill="#003e6b"/></svg>

<?xml version="1.0" encoding="UTF-8"?>
<svg xmlns="http://www.w3.org/2000/svg" viewBox="0 0 64 64" width="64px" height="64px">
<g id="surface12911854">
<path style=" stroke:none;fill-rule:nonzero;fill:rgb(0%,24.313726%,41.960785%);fill-opacity:1;" d="M 31.996094 0 C 29.769531 0 27.976562 1.742188 27.90625 3.960938 L 27.859375 5.53125 C 27.027344 4.59375 25.808594 4 24.453125 4 C 21.972656 4 19.976562 5.945312 19.917969 8.429688 L 19.78125 14 L 5 14 C 3.347656 14 2 15.347656 2 17 L 2 45 C 2 46.652344 3.347656 48 5 48 L 11.300781 48 C 12.007812 49.523438 12.886719 50.96875 13.953125 52.296875 L 18.152344 57.542969 L 20.550781 62.34375 C 21.0625 63.363281 22.09375 64 23.234375 64 L 47.519531 64 C 48.847656 64 50 63.148438 50.390625 61.882812 L 52.910156 53.6875 C 53.480469 51.832031 53.761719 49.925781 53.800781 48 L 59 48 C 60.652344 48 62 46.652344 62 45 L 62 17 C 62 15.347656 60.652344 14 59 14 L 51.863281 14 C 51.21875 12.246094 49.558594 11 47.589844 11 C 46.253906 11 45.050781 11.574219 44.210938 12.484375 L 44.097656 8.421875 C 44.027344 5.941406 42.027344 4 39.546875 4 C 38.195312 4 36.976562 4.597656 36.140625 5.539062 L 36.09375 3.960938 C 36.023438 1.742188 34.226562 0 31.996094 0 Z M 32.003906 2 C 33.140625 2 34.058594 2.890625 34.09375 4.023438 L 34.402344 14 L 29.597656 14 L 29.90625 4.023438 C 29.941406 2.890625 30.859375 2 32.003906 2 Z M 24.460938 6 C 25.859375 6 27 7.140625 27 8.539062 L 27 14 L 21.78125 14 L 21.917969 8.476562 C 21.949219 7.113281 23.089844 6 24.460938 6 Z M 39.546875 6 C 40.9375 6 42.058594 7.089844 42.097656 8.476562 L 42.25 14 L 37 14 L 37 8.546875 C 37 7.144531 38.144531 6 39.546875 6 Z M 47.59375 13 C 48.417969 13 49.152344 13.394531 49.625 14 L 45.5625 14 C 46.039062 13.394531 46.765625 13 47.59375 13 Z M 5 16 L 59 16 C 59.550781 16 60 16.449219 60 17 L 60 45 C 60 45.550781 59.550781 46 59 46 L 29.644531 46 C 27.535156 46 25.574219 45.257812 24.011719 44 C 24.558594 43.992188 25 43.550781 25 43 L 25 41 C 25 40.445312 24.554688 40 24 40 C 23.445312 40 23 40.445312 23 41 L 23 43 C 23 43.019531 23.011719 43.039062 23.011719 43.058594 C 22.308594 42.289062 21.71875 41.398438 21.308594 40.390625 L 18.546875 33.609375 C 17.402344 30.789062 15.0625 28.691406 12.136719 27.855469 C 11.171875 27.582031 10.144531 27.800781 9.375 28.449219 C 8.613281 29.09375 8.222656 30.074219 8.328125 31.066406 L 9.46875 41.453125 C 9.636719 43.011719 9.984375 44.535156 10.488281 46 L 5 46 C 4.449219 46 4 45.550781 4 45 L 4 17 C 4 16.449219 4.449219 16 5 16 Z M 19 18 C 18.445312 18 18 18.445312 18 19 L 18 21 C 18 21.554688 18.445312 22 19 22 C 19.554688 22 20 21.554688 20 21 L 20 19 C 20 18.445312 19.554688 18 19 18 Z M 24 18 C 23.445312 18 23 18.445312 23 19 L 23 21 C 23 21.554688 23.445312 22 24 22 C 24.554688 22 25 21.554688 25 21 L 25 19 C 25 18.445312 24.554688 18 24 18 Z M 29 18 C 28.445312 18 28 18.445312 28 19 L 28 21 C 28 21.050781 28.023438 21.09375 28.03125 21.144531 C 25.054688 22.941406 23 26.679688 23 31 C 23 35.320312 25.054688 39.058594 28.03125 40.855469 C 28.023438 40.90625 28 40.949219 28 41 L 28 43 C 28 43.554688 28.445312 44 29 44 C 29.554688 44 30 43.554688 30 43 L 30 41.71875 C 30.644531 41.894531 31.3125 42 32 42 C 32.6875 42 33.355469 41.894531 34 41.71875 L 34 43 C 34 43.554688 34.445312 44 35 44 C 35.554688 44 36 43.554688 36 43 L 36 41 C 36 40.949219 35.976562 40.90625 35.96875 40.855469 C 38.945312 39.058594 41 35.320312 41 31 C 41 26.679688 38.945312 22.941406 35.96875 21.144531 C 35.976562 21.09375 36 21.050781 36 21 L 36 19 C 36 18.445312 35.554688 18 35 18 C 34.445312 18 34 18.445312 34 19 L 34 20.28125 C 33.355469 20.105469 32.6875 20 32 20 C 31.3125 20 30.644531 20.105469 30 20.28125 L 30 19 C 30 18.445312 29.554688 18 29 18 Z M 40 18 C 39.445312 18 39 18.445312 39 19 L 39 21 C 39 21.554688 39.445312 22 40 22 C 40.554688 22 41 21.554688 41 21 L 41 19 C 41 18.445312 40.554688 18 40 18 Z M 45 18 C 44.445312 18 44 18.445312 44 19 L 44 21 C 44 21.554688 44.445312 22 45 22 C 45.554688 22 46 21.554688 46 21 L 46 19 C 46 18.445312 45.554688 18 45 18 Z M 7 19 C 6.445312 19 6 19.445312 6 20 C 6 20.554688 6.445312 21 7 21 L 12 21 C 12.554688 21 13 20.554688 13 20 C 13 19.445312 12.554688 19 12 19 Z M 52 19 C 51.445312 19 51 19.445312 51 20 C 51 20.554688 51.445312 21 52 21 L 57 21 C 57.554688 21 58 20.554688 58 20 C 58 19.445312 57.554688 19 57 19 Z M 32 22 C 35.859375 22 39 26.035156 39 31 C 39 35.964844 35.859375 40 32 40 C 28.140625 40 25 35.964844 25 31 C 25 26.035156 28.140625 22 32 22 Z M 50 27 C 47.792969 27 46 28.792969 46 31 C 46 33.207031 47.792969 35 50 35 C 52.207031 35 54 33.207031 54 31 C 54 28.792969 52.207031 27 50 27 Z M 50 28.667969 C 51.285156 28.667969 52.332031 29.714844 52.332031 31 C 52.332031 32.285156 51.285156 33.332031 50 33.332031 C 48.714844 33.332031 47.667969 32.285156 47.667969 31 C 47.667969 29.714844 48.714844 28.667969 50 28.667969 Z M 11.34375 29.738281 C 11.421875 29.742188 11.507812 29.753906 11.589844 29.78125 C 13.917969 30.445312 15.78125 32.117188 16.695312 34.363281 L 19.453125 41.144531 C 21.148438 45.308594 25.148438 48 29.644531 48 L 51.808594 48 C 51.765625 49.726562 51.511719 51.4375 51 53.097656 L 48.480469 61.292969 C 48.347656 61.714844 47.964844 62 47.519531 62 L 23.234375 62 C 22.855469 62 22.511719 61.789062 22.34375 61.449219 L 19.894531 56.550781 C 19.878906 56.519531 19.847656 56.5 19.828125 56.46875 C 19.808594 56.4375 19.800781 56.402344 19.78125 56.375 L 15.511719 51.046875 C 14.476562 49.75 13.671875 48.265625 12.761719 46.375 C 12.089844 44.738281 11.648438 43.011719 11.453125 41.234375 L 10.316406 30.847656 C 10.28125 30.511719 10.410156 30.195312 10.667969 29.976562 C 10.863281 29.8125 11.097656 29.730469 11.34375 29.738281 Z M 40 40 C 39.445312 40 39 40.445312 39 41 L 39 43 C 39 43.554688 39.445312 44 40 44 C 40.554688 44 41 43.554688 41 43 L 41 41 C 41 40.445312 40.554688 40 40 40 Z M 45 40 C 44.445312 40 44 40.445312 44 41 L 44 43 C 44 43.554688 44.445312 44 45 44 C 45.554688 44 46 43.554688 46 43 L 46 41 C 46 40.445312 45.554688 40 45 40 Z M 52 41 C 51.445312 41 51 41.445312 51 42 C 51 42.554688 51.445312 43 52 43 L 57 43 C 57.554688 43 58 42.554688 58 42 C 58 41.445312 57.554688 41 57 41 Z M 52 41 "/>
</g>
</svg>
